svg/filled/WifiOffFilledIcon.svg

<svg width="24" height="24" viewBox="0 0 24 24" xmlns="http://www.w3.org/2000/svg" fill="#cacaca"><path d="M3.21882 4.15632L6.00007 6.34382C7.8334 5.46882 9.8334 5.0209 12.0001 5.00007C13.8959 5.0209 15.6667 5.36465 17.3126 6.03132C18.9584 6.71882 20.4167 7.67715 21.6876 8.90632C21.8959 9.09382 22.0001 9.32299 22.0001 9.59382C22.0001 9.86465 21.9063 10.1042 21.7188 10.3126C21.5105 10.5209 21.2813 10.6251 21.0313 10.6251C20.7605 10.6251 20.5209 10.5313 20.3126 10.3438C19.2292 9.30215 17.9792 8.48965 16.5626 7.90632C15.1459 7.30215 13.6251 7.00007 12.0001 7.00007C10.5209 7.00007 9.12507 7.25007 7.81257 7.75007L10.7813 10.0938C11.1772 10.0313 11.5834 10.0001 12.0001 10.0001C13.1459 10.0001 14.2292 10.198 15.2501 10.5938C16.2501 10.9897 17.1563 11.5417 17.9688 12.2501C18.1772 12.4376 18.2813 12.6667 18.2813 12.9376C18.3022 13.2084 18.2188 13.448 18.0313 13.6563C17.8438 13.8647 17.6147 13.9792 17.3438 14.0001C17.0938 14.0209 16.8542 13.9376 16.6251 13.7501C15.7084 12.9376 14.6355 12.3959 13.4063 12.1251L21.7188 18.6563C22.0522 18.9688 22.0938 19.323 21.8438 19.7188C21.5313 20.0522 21.1772 20.0938 20.7813 19.8438L2.28132 5.34382C1.94799 5.03132 1.90632 4.67715 2.15632 4.28132C2.46882 3.94799 2.82299 3.90632 3.21882 4.15632ZM13.9063 16.3751C13.9688 16.5626 14.0001 16.7709 14.0001 17.0001C13.9792 17.5626 13.7813 18.0313 13.4063 18.4063C13.0313 18.7813 12.5626 18.9792 12.0001 19.0001C11.4376 18.9792 10.9688 18.7813 10.5938 18.4063C10.2188 18.0313 10.0209 17.5626 10.0001 17.0001C10.0209 16.4376 10.2188 15.9688 10.5938 15.5938C10.9688 15.2188 11.4376 15.0209 12.0001 15.0001C12.0626 15.0001 12.1147 15.0001 12.1563 15.0001L13.9063 16.3751ZM9.12507 12.6251C8.47924 12.9167 7.8959 13.2917 7.37507 13.7501C7.1459 13.9376 6.90632 14.0209 6.65632 14.0001C6.38549 13.9792 6.15632 13.8647 5.96882 13.6563C5.78132 13.448 5.69799 13.2084 5.71882 12.9376C5.73965 12.6667 5.85424 12.4376 6.06257 12.2501C6.47924 11.8751 6.92715 11.5417 7.40632 11.2501L9.12507 12.6251ZM4.93757 9.31257C4.50007 9.62507 4.0834 9.96882 3.68757 10.3438C3.47924 10.5313 3.23965 10.6251 2.96882 10.6251C2.71882 10.6251 2.48965 10.5209 2.28132 10.3126C2.09382 10.1042 2.00007 9.86465 2.00007 9.59382C2.00007 9.32299 2.10424 9.09382 2.31257 8.90632C2.62507 8.59382 2.9584 8.30215 3.31257 8.03132L4.93757 9.31257Z"/></svg>

<svg width="24" height="24" fill="#cacaca" xmlns="http://www.w3.org/2000/svg"><path d="M3.219 4.156L6 6.344C7.833 5.469 9.833 5.02 12 5c1.896.02 3.667.365 5.313 1.031a13.994 13.994 0 014.375 2.875.89.89 0 01.312.688c0 .27-.094.51-.281.719-.209.208-.438.312-.688.312-.27 0-.51-.094-.718-.281a11.887 11.887 0 00-3.75-2.438C15.146 7.302 13.624 7 12 7c-1.48 0-2.875.25-4.187.75l2.968 2.344A7.802 7.802 0 0112 10a8.91 8.91 0 013.25.594c1 .396 1.906.948 2.719 1.656a.89.89 0 01.312.688c.021.27-.062.51-.25.718a1 1 0 01-.687.344c-.25.02-.49-.062-.719-.25a7.058 7.058 0 00-3.219-1.625l8.313 6.531c.333.313.375.667.125 1.063-.313.333-.667.375-1.063.125l-18.5-14.5c-.333-.313-.375-.667-.125-1.063.313-.333.667-.375 1.063-.125zm10.687 12.22c.063.187.094.395.094.624-.02.563-.219 1.031-.594 1.406S12.562 18.98 12 19c-.563-.02-1.031-.219-1.406-.594S10.02 17.563 10 17c.02-.562.219-1.031.594-1.406S11.438 15.02 12 15h.156l1.75 1.375zm-4.781-3.75a6.978 6.978 0 00-1.75 1.124c-.23.188-.469.27-.719.25a1 1 0 01-.687-.344.929.929 0 01-.25-.718c.02-.271.135-.5.344-.688a8.993 8.993 0 011.343-1l1.719 1.375zM4.938 9.312a11.73 11.73 0 00-1.25 1.03 1.043 1.043 0 01-.72.282c-.25 0-.478-.104-.687-.312A1.043 1.043 0 012 9.593c0-.27.104-.5.313-.687a10.02 10.02 0 011-.875l1.625 1.282z"/></svg>
